usr/share/icons/biglinux-icons-material/16/actions/love-amarok.svg

<svg xmlns="http://www.w3.org/2000/svg" viewBox="0 0 16 16">
  <defs id="defs3051">
    <style type="text/css" id="current-color-scheme">
      .ColorScheme-Text {
        color:#363636;
      }
      </style>
  </defs>
 <path style="fill:currentColor;fill-opacity:1;stroke:none" 
     d="M 4 2 C 2.343 2 1 3.343 1 5 C 1 9 6 12 8 14 C 10 12 15 9 15 5 C 15 3.343 13.657 2 12 2 C 9 2 8 4 8 4 C 8 4 7 2 4 2 z M 4 3 C 5.7191685 2.9867647 6.6355364 3.8577363 7.3359375 5 L 8.6269531 5 C 9.4443651 3.7484379 10.628397 3.0161834 12 3 C 13.116666 3 14 3.8833339 14 5 C 14 6.5833333 12.964401 8.1215362 11.542969 9.5429688 C 10.357873 10.728065 9.0760263 11.709469 8 12.669922 C 6.9239737 11.709469 5.6421273 10.728065 4.4570312 9.5429688 C 3.0355987 8.121536 2 6.5833333 2 5 C 2 3.8833339 2.8833339 3 4 3 z "
     class="ColorScheme-Text"
     />
</svg>

<svg xmlns="http://www.w3.org/2000/svg" viewBox="0 0 16 16"><path d="M4 2a3 3 0 0 0-3 3c0 4 5 7 7 9 2-2 7-5 7-9a3 3 0 0 0-3-3C9 2 8 4 8 4S7 2 4 2zm0 1c1.72-.013 2.636.858 3.336 2h1.291C9.444 3.748 10.628 3.016 12 3c1.117 0 2 .883 2 2 0 1.583-1.036 3.122-2.457 4.543C10.358 10.728 9.076 11.709 8 12.67c-1.076-.96-2.358-1.942-3.543-3.127C3.036 8.122 2 6.583 2 5c0-1.117.883-2 2-2z" style="fill:currentColor;fill-opacity:1;stroke:none;color:#dedede"/></svg>
